COLOR/action 16/16/dialog-rows-and-columns.svg

<svg height="16" viewBox="0 0 16 16" width="16" xmlns="http://www.w3.org/2000/svg"><g fill="#c43ac4" stroke-width=".815817"><path d="m1 2v4h6v-4zm0 6v6h6v-6z"/><path d="m15 14v-4h-6v4zm0-6v-6h-6v6z"/><path d="m1 2v.5h6v-.5zm8 0v.5h6v-.5zm-8 6v.5h6v-.5zm8 2v.5h6v-.5z" fill="#fff" opacity=".3"/><path d="m1 5.5v.5h6v-.5zm8 2v.5h6v-.5zm-8 6v.5h6v-.5zm8 0v.5h6v-.5z" fill="#000" opacity=".2"/></g></svg>

<?xml version="1.0" encoding="UTF-8" standalone="no"?>
<svg
   xmlns:dc="http://purl.org/dc/elements/1.1/"
   xmlns:cc="http://creativecommons.org/ns#"
   xmlns:rdf="http://www.w3.org/1999/02/22-rdf-syntax-ns#"
   xmlns:svg="http://www.w3.org/2000/svg"
   xmlns="http://www.w3.org/2000/svg"
   xmlns:sodipodi="http://sodipodi.sourceforge.net/DTD/sodipodi-0.dtd"
   xmlns:inkscape="http://www.inkscape.org/namespaces/inkscape"
   height="16"
   viewBox="0 0 16 16"
   width="16"
   version="1.1"
   id="svg8"
   sodipodi:docname="dialog-rows-and-columns.svg"
   inkscape:version="0.92.4 (5da689c313, 2019-01-14)">
  <metadata
     id="metadata14">
    <rdf:RDF>
      <cc:Work
         rdf:about="">
        <dc:format>image/svg+xml</dc:format>
        <dc:type
           rdf:resource="http://purl.org/dc/dcmitype/StillImage" />
      </cc:Work>
    </rdf:RDF>
  </metadata>
  <defs
     id="defs12" />
  <sodipodi:namedview
     pagecolor="#ffffff"
     bordercolor="#666666"
     borderopacity="1"
     objecttolerance="10"
     gridtolerance="10"
     guidetolerance="10"
     inkscape:pageopacity="0"
     inkscape:pageshadow="2"
     inkscape:window-width="1920"
     inkscape:window-height="1016"
     id="namedview10"
     showgrid="false"
     inkscape:zoom="14.75"
     inkscape:cx="8"
     inkscape:cy="8"
     inkscape:window-x="0"
     inkscape:window-y="27"
     inkscape:window-maximized="1"
     inkscape:current-layer="g6" />
  <g
     fill="#c43ac4"
     stroke-width=".815817"
     id="g6">
    <path
       d="m1 2v4h6v-4zm0 6v6h6v-6z"
       id="path2" />
    <path
       d="m15 14v-4h-6v4zm0-6v-6h-6v6z"
       id="path4" />
    <path
       d="M 1 2 L 1 2.5 L 7 2.5 L 7 2 L 1 2 z M 9 2 L 9 2.5 L 15 2.5 L 15 2 L 9 2 z M 1 8 L 1 8.5 L 7 8.5 L 7 8 L 1 8 z M 9 10 L 9 10.5 L 15 10.5 L 15 10 L 9 10 z "
       id="path826"
       style="fill:#ffffff;fill-opacity:1;opacity:0.3" />
    <path
       d="M 1 5.5 L 1 6 L 7 6 L 7 5.5 L 1 5.5 z M 9 7.5 L 9 8 L 15 8 L 15 7.5 L 9 7.5 z M 1 13.5 L 1 14 L 7 14 L 7 13.5 L 1 13.5 z M 9 13.5 L 9 14 L 15 14 L 15 13.5 L 9 13.5 z "
       id="path831"
       style="fill:#000000;fill-opacity:1;opacity:0.2" />
  </g>
</svg>
